X:1
T:Title
%%score { ( 1 3 ) | ( 2 4 ) }
L:1/8
Q:1/4=100
M:3/4
K:F
V:1 treble nm="Grand Piano"
V:3 treble 
V:2 bass 
V:4 bass 
V:1
 A2 A2 _A2 | A2 [CFc]4 | [B,EG]2 [A,CF]2 [CEG]2 | [CFA]4 z2 | [B,FB]2 [Fc]2 [Fd]2 | c2 A2 F2 | %6
w: Wiliima~J.~Kirkpatrick * *||||||
 F2 E2 F2 | [EG]4 z2 | A2 A2 _A2 | A2 [CFc]4 | [B,EG]2 [A,CF]2 [CEG]2 | [CFA]4 z2 | %12
w: ||||||
 [B,FB]2 [Fc]2 [Fd]2 | [Fc]2 [CFA]2 [=B,F]2 | [B,G]2 A2 [B,EG]2 | [A,CF]4 z2 | [CEG]4 [CEG]2 | %17
w: |||||
 _A3 G F2 | E2 E2 F2 | C4 z2 | c4 c>c | _A2 G2 F2 | E2 E2 F2 |[M:4/4] [Ec]6 z2 |[M:3/4] c3 c c2 | %25
w: ||||||||
 B2 G2 F2 | [FB]4 [Fc]2 | [Fd]4 z2 | c2 A2 F2 |[M:7/8] D2 [DFB]3 z2 | %30
w: |||||
[M:3/4] [CFA]2 [A,CF]2 [B,CG]2 | [F,A,CF]4 z2 |] %32
w: ||
V:2
 [F,CF]2 [F,CF]2 [F,=B,F]2 | [F,CF]2 A,,4 | C,2 C,2 C,2 | F,4 z2 | D,2 [C,A,]2 [B,,B,]2 | %5
 [F,A,F]2 [F,CF]2 [A,C]2 | [G,B,C]4 [F,A,C]2 | [C,C]4 z2 | [F,CF]2 [F,CF]2 [F,=B,F]2 | %9
 [F,CF]2 A,,4 | C,2 C,2 C,2 | F,4 z2 | D,2 [C,A,]2 [B,,B,]2 | [F,A,]2 F,2 D,2 | z2 C2 C,2 | %15
 F,4 z2 | C,4 C,2 | _A,3 G, F,2 | E,2 E,2 F,2 | C,4 z2 | C4 C>C | _A,2 G,2[K:bass] F,2 | %22
 E,2 E,2 F,2 |[M:4/4] [C,G,]6 z2 |[M:3/4] [F,A,F]3 [F,A,F] [F,A,F]2 | [F,CF]2 [F,B,C]2 [F,A,C]2 | %26
 [D,B,]4 [C,A,]2 | [B,,B,]4 z2 | [F,A,F]2 [F,CF]2 [F,A,C]2 |[M:7/8] [B,,B,]2 B,,3 z2 | %30
[M:3/4] C,2 C,2 C,2 | F,,4 z2 |] %32
V:3
 x6 | x6 | x6 | x6 | x6 | x6 | x6 | x6 | x6 | x6 | x6 | x6 | x6 | x6 | E4 z2 | x6 | x6 | x6 | x6 | %19
 x6 | x6 | x6 | x6 |[M:4/4] x8 |[M:3/4] x6 | x6 | x6 | x6 | x6 |[M:7/8] x7 |[M:3/4] x6 | x6 |] %32
V:4
 x6 | x6 | x6 | x6 | x6 | x6 | x6 | x6 | x6 | x6 | x6 | x6 | x6 | x6 | C,4 z2 | x6 | x6 | x6 | x6 | %19
 x6 | x6 | x4[K:bass] x2 | x6 |[M:4/4] x8 |[M:3/4] x6 | x6 | x6 | x6 | x6 |[M:7/8] x7 |[M:3/4] x6 | %31
 x6 |] %32

